Sources/FrostedUI/Resources/Icons.xcassets/photos32.imageset/photos-32.svg

<svg width="32" height="32" viewBox="0 0 32 32" fill="none" xmlns="http://www.w3.org/2000/svg" data-fui-icon="true">
  <path
    fill-rule="evenodd"
    clip-rule="evenodd"
    d="M19 7C17.067 7 15.5 8.567 15.5 10.5C15.5 12.433 17.067 14 19 14C20.933 14 22.5 12.433 22.5 10.5C22.5 8.567 20.933 7 19 7ZM17 10.5C17 9.39543 17.8954 8.5 19 8.5C20.1046 8.5 21 9.39543 21 10.5C21 11.6046 20.1046 12.5 19 12.5C17.8954 12.5 17 11.6046 17 10.5Z"
    fill="currentColor"
  />
  <path
    fill-rule="evenodd"
    clip-rule="evenodd"
    d="M4.5 6.75C4.5 4.40279 6.40279 2.5 8.75 2.5H27.25C29.5972 2.5 31.5 4.40279 31.5 6.75V21.25C31.5 23.5972 29.5972 25.5 27.25 25.5H8.75C6.40279 25.5 4.5 23.5972 4.5 21.25V6.75ZM8.75 4C7.23122 4 6 5.23122 6 6.75V17.3697L7.7436 15.3835C8.51554 14.5041 9.62891 14 10.799 14C11.9147 14 12.9814 14.4585 13.7492 15.2681L17.8074 19.5478L19.5004 17.4646C20.2535 16.538 21.384 16 22.5781 16C23.6764 16 24.7256 16.4555 25.4755 17.2579L29.899 21.991C29.9648 21.7553 30 21.5068 30 21.25V6.75C30 5.23122 28.7688 4 27.25 4H8.75ZM22.0293 24L18.8483 20.6454L20.6645 18.4107C21.1327 17.8345 21.8356 17.5 22.5781 17.5C23.261 17.5 23.9133 17.7832 24.3796 18.2821L29.0755 23.3067C28.5899 23.738 27.9506 24 27.25 24H22.0293ZM19.9621 24L12.6607 16.3003C12.1762 15.7894 11.5031 15.5 10.799 15.5C10.0606 15.5 9.35801 15.8181 8.87087 16.3731L6.07413 19.5589C6.05081 19.5855 6.02602 19.61 6 19.6325V21.25C6 22.7688 7.23122 24 8.75 24H19.9621Z"
    fill="currentColor"
  />
  <path
    d="M1.25 5.5C1.66421 5.5 2 5.83579 2 6.25V25.25C2 26.7688 3.23122 28 4.75 28H26.75C27.1642 28 27.5 28.3358 27.5 28.75C27.5 29.1642 27.1642 29.5 26.75 29.5H4.75C2.40279 29.5 0.5 27.5972 0.5 25.25V6.25C0.5 5.83579 0.835786 5.5 1.25 5.5Z"
    fill="currentColor"
  />
</svg>

<svg xmlns="http://www.w3.org/2000/svg" width="32" height="32" fill="none" data-fui-icon="true" viewBox="0 0 32 32"><path fill="currentColor" fill-rule="evenodd" d="M19 7a3.5 3.5 0 1 0 0 7 3.5 3.5 0 0 0 0-7m-2 3.5a2 2 0 1 1 4 0 2 2 0 0 1-4 0" clip-rule="evenodd"/><path fill="currentColor" fill-rule="evenodd" d="M4.5 6.75A4.25 4.25 0 0 1 8.75 2.5h18.5a4.25 4.25 0 0 1 4.25 4.25v14.5a4.25 4.25 0 0 1-4.25 4.25H8.75a4.25 4.25 0 0 1-4.25-4.25zM8.75 4A2.75 2.75 0 0 0 6 6.75v10.62l1.744-1.987a4.066 4.066 0 0 1 6.005-.115l4.058 4.28 1.693-2.083a3.966 3.966 0 0 1 5.976-.207l4.423 4.733q.1-.355.101-.741V6.75A2.75 2.75 0 0 0 27.25 4zm13.28 20-3.182-3.355 1.817-2.234a2.466 2.466 0 0 1 3.715-.129l4.696 5.025A2.74 2.74 0 0 1 27.25 24zm-2.068 0-7.301-7.7a2.566 2.566 0 0 0-3.79.073L6.074 19.56a1 1 0 0 1-.074.073v1.618A2.75 2.75 0 0 0 8.75 24z" clip-rule="evenodd"/><path fill="currentColor" d="M1.25 5.5a.75.75 0 0 1 .75.75v19A2.75 2.75 0 0 0 4.75 28h22a.75.75 0 0 1 0 1.5h-22A4.25 4.25 0 0 1 .5 25.25v-19a.75.75 0 0 1 .75-.75"/></svg>
